X:1
T:Title
%%score 1 2
L:1/8
M:3/2
K:C
V:1 bass nm="Part_1"
V:2 bass nm="Part_2"
V:1
 A,3 A, A,2 E,E, G,3 G, |[M:2/2] C,C,E,F, G, A,/B,/C/B,/A,/G,/ | %2
w: Con- fi- te- mi- ni Do- mi-|no et in- vo ca- * * * * * *|
[M:3/2] F, E,/D,/C,A,, C,B,,A,, G,,/F,,/ E,,4 | %3
w: * * * * te no- men e- * * *|
 A,,A,,C,D, E,E,/C,/E,F, G,/C,/E,/F,/G,/G,,/B,,/C,/ |[M:2/2] D,/E,/F,/G,/A,E, G,D, E,/F,/G,/E,/ | %5
w: ius et in- vo- ca te et in- vo ca- * * * * * * *|* * * * * te no- men e- * * *|
[M:3/2] F,/G,/A,/F,/G,F, E,4 D,4 |[M:2/2] z8 |[M:3/2] z4 z2 A,2 CB,A,G, | %8
w: * * * * * * * ius||An- nun- * cia- te|
 F,E, D,2 C,2 F,F,/E,/ F,/G,/A,/F,/ G,2 |[M:12/2] C,8 C,4 D,8 E,4 F,4 F,4 G,4 A,4 A,2 F,2 E,4 | %10
w: * ter gen- tes o- pe- ra e- * * * *|ius Can- ta- te e\-- * et psal- li- te e-|
[M:4/4] A,,2 z A, A,/G,/F,/E,/ D,D,/G,/ | G,/F,/E,/D,/ C,2 G,2 A,A,/A,/ | %12
w: i nar- ra- * * * * te nar-|ra- * * * * te om- ni- a|
 E,E, ^F,F,/F,/ ^G, A,2 G, |[M:6/2] A,12 z12 | z12 z12 | z12 z4 z4 D,4 | %16
w: mi- ra- bi- li\-a * e- * *|ius||Lau-|
 G,6 F,2 E,2 E,2 A,6 G,2 ^F,2 F,2 |[M:9/2] G,6 E,2 E,4 ^C,8 D,4 E,12 |[M:4/4] A,,2 z2 z E,E,E, | %19
w: da- mi- ni Lau- da- mi- ni in|no- mi- ne Sanc- to e-|ius Læte- * tur|
 B,,B,, ^C,C,/C,/ D,/E,/F,/D,/ E,>E, |[M:3/2] A,,2 A,A,/G,/ F,>E, D,/C,/B,,/A,,/ G,,>G,, C,2 | %21
w: cor quæ- ren- ti- um Do- * * * * mi|num quæ- ri- te do- mi- num et con- fir- ma- mi- ni|
 C,C,/C,/F,F,/D,/ E,F, E,2 A,,4 | z12 | A,,A,,/B,,/C,C,/D,/ E,C, B,,2 A,,4 | %24
w: quæ- ri- te fa- ci- em e- ius sem- per||quæ- ri- te fa- ci- em e- ius sem- per|
[M:4/2] A,>G,F,>E, D,2 ^C,2 E,2 F,2 E,4 |[M:4/4] A,,8 |] %26
w: e- * * * * ius sem- * *|per|
V:2
 A,3 A, A,2 E,E, G,3 G, |[M:2/2] C,C,E,F, G,A,/B,/C/B,/A,/G,/ | %2
[M:3/2] F,E,/D,/ C,A,,C,B,, A,,G,,/F,,/ E,,4 | A,,A,,C, D,E,E,/C,/E,F, G,/C,/E,/F,/G,/G,,/B,,/C,/ | %4
[M:2/2] D,/E,/F,/G,/ A,E,G,D, E,/F,/G,/E,/ |[M:3/2] F,/G,/A,/F,/ G,F, E,4 D,2 D,2 | %6
[M:2/2] F,E,D,C, B,,A,, G,,2 |[M:3/2] C,2 D,D,/^C,/ E,2 A,2 CB,A,G, | %8
 F,E, D,2 C,2 F,F,/E,/F,/G,/A,/F,/ G,2 |[M:12/2] C,8 C,4 D,8 E,4 F,4 F,4 G,4 A,4 A,2 F,2 E,4 | %10
[M:4/4] A,,3 A,A,/G,/F,/E,/ D,D,/G,/ | G,/F,/E,/D,/ C,2 G,2 A,A,/A,/ | E,E,^F,F,/F,/ ^G, A,2 G, | %13
[M:6/2] A,8 A,,4 D,6 C,2 B,,2 B,,2 | E,6 D,2 ^C,2 C,2 D,6 B,,2 B,,4 | A,,4 G,,4 A,,4 D,8 D,4 | %16
 G,6 F,2 E,2 E,2 A,6 G,2 ^F,2 F,2 |[M:9/2] G,6 E,2 E,4 ^C,8 D,4 E,12 |[M:4/4] A,,A,A,A,E,E,E,E, | %19
 B,,B,,^C,C,/C,/D,/E,/F,/D,/ E,>E, |[M:3/2] A,,2 A,A,/G,/ F,>E,D,/C,/B,,/A,,/ G,,>G,, C,2 | %21
 C,C,/C,/ F,F,/D,/ E,F, E,2 A,,4 | D,D,/E,/ F,F,/G,/ A,F, E,2 D,4 | %23
 A,,A,,/B,,/ C,C,/D,/ E,C, B,,2 A,,4 |[M:4/2] A,>G,F,>E, D,2 ^C,2 E,2 F,2 E,4 |[M:4/4] A,,8 |] %26

